phalcon/images/svg/phalcon-logo-white-105x40.svg

<svg width="105" height="40" viewBox="0 0 105 40" fill="none" xmlns="http://www.w3.org/2000/svg">
<path d="M42.6042 31.5169C42.6042 32.4366 42.1443 32.8964 41.2247 32.8964H39.8181V22.3743C39.9534 19.0743 41.6845 17.4784 45.0115 17.4784C48.4468 17.4784 50.1779 19.3178 50.1779 23.0235C50.1779 26.7563 48.7173 28.7038 45.7419 28.812C44.3624 28.812 43.3074 28.244 42.6042 27.1079V31.5169ZM44.9845 26.3235C46.4992 26.3235 47.2566 25.2686 47.3378 23.1317C47.3378 20.9137 46.5533 19.8046 44.9574 19.8046C43.3615 19.8046 42.6042 20.9137 42.6312 23.1317C42.7124 25.2686 43.4697 26.3235 44.9845 26.3235Z" fill="white"/>
<path d="M55.6152 19.9128C53.9652 19.9128 53.2348 21.2923 53.2348 22.9693V28.5955H50.4758V14.4489H51.8824C52.8021 14.4489 53.2619 14.9357 53.2619 15.8554V19.1554C54.6955 17.5325 56.4266 17.0726 58.5094 17.8029C60.0512 18.371 60.7815 19.8316 60.7004 22.239V28.6226H57.9414V22.9693C57.9414 21.1029 57.2111 19.9128 55.6152 19.9128Z" fill="white"/>
<path d="M63.9729 20.4538H61.1868C61.5114 18.4251 62.9721 17.4243 65.5147 17.4243C68.5713 17.4243 70.1401 18.4251 70.1942 20.4538V24.1866C70.1942 27.2161 68.3549 28.5685 65.3524 28.7849C62.7016 29.0013 60.8352 27.757 60.8352 25.3226C60.8893 22.6718 62.8368 21.9685 65.65 21.698C66.8401 21.5628 67.4622 21.2112 67.4622 20.589C67.4081 19.9669 66.8131 19.6423 65.65 19.6423C64.6762 19.6964 64.1352 19.9399 63.9729 20.4538ZM67.4893 24.0784V23.0505C66.8401 23.321 66.0827 23.5374 65.2713 23.7267C64.1622 23.9431 63.5942 24.4571 63.5942 25.2685C63.6483 26.1341 64.1081 26.5669 65.0008 26.5669C66.5426 26.5669 67.4893 25.6472 67.4893 24.0784Z" fill="white"/>
<path d="M73.7378 15.8013V28.5956H70.9518V14.4489H72.3854C73.1157 14.4489 73.7378 15.071 73.7378 15.8013Z" fill="white"/>
<path d="M79.3639 28.839C76.0099 28.839 74.2787 26.9186 74.1976 23.1317C74.1976 19.3719 75.9017 17.4784 79.3099 17.4243C81.9877 17.4243 83.5836 18.6145 84.0705 20.9948H81.041C80.7164 20.2374 80.1213 19.8587 79.2287 19.8587C77.768 19.8587 77.0377 20.9678 77.0377 23.1587C77.0377 25.3497 77.8221 26.4587 79.3639 26.4317C80.0131 26.4317 80.5812 26.1612 81.041 25.6472C81.3115 25.3768 81.6361 25.2415 81.9877 25.2415H84.0975C83.5836 27.4595 81.9336 28.9202 79.3639 28.839Z" fill="white"/>
<path d="M94.5113 23.1588C94.5113 26.9457 92.8073 28.8661 89.4532 28.8661C86.0991 28.8661 84.422 26.9457 84.422 23.1588C84.422 19.3178 86.0991 17.4514 89.4532 17.4514C92.8343 17.4244 94.5113 19.3178 94.5113 23.1588ZM87.2622 23.1588C87.2892 25.2957 88.0196 26.3776 89.4532 26.3776C90.8868 26.3776 91.59 25.2416 91.6171 23.0776C91.6171 20.9408 90.9138 19.8858 89.4802 19.8858C87.9925 19.8588 87.2622 20.9678 87.2622 23.1588Z" fill="white"/>
<path d="M102.87 28.5956C101.95 28.5415 101.49 28.1087 101.49 27.2161V21.5628C101.436 20.4268 100.787 19.8587 99.5697 19.8587C98.3254 19.8587 97.7033 20.4268 97.6762 21.5628V28.5956H94.8361V22.1309C94.8361 18.9932 96.432 17.4243 99.5967 17.4243C102.761 17.4243 104.303 18.9932 104.303 22.1309V28.5956H102.87Z" fill="white"/>
<path d="M14.9809 23.5935L13.131 24.4729L16.9521 24.1697L17.6799 23.5935L17.4677 23.2296L14.9809 23.5935Z" fill="#ACD2B4"/>
<path d="M21.4403 33.9044L23.2599 34.7535V35.2994L22.0165 34.7838L21.8649 35.0568L23.0173 35.633L23.5025 36.8157L22.3501 35.8453H22.1075L22.3501 38.8172L20.8944 37.1189L20.7731 35.3904L21.4403 33.9044Z" fill="#3A3A3A"/>
<path d="M19.0146 33.6618L21.1071 35.6936V37.0886L19.2269 37.8771L18.0745 35.8149V29.7801L18.5597 28.84L18.7417 28.9916L19.0146 33.6618Z" fill="#8FC19A"/>
<path d="M23.7148 28.7794L25.5343 29.6286V30.2048L24.3213 29.6589L24.1697 29.9318L25.2614 30.4777L25.7769 31.7211L24.6852 30.7203H24.4426L24.6549 33.6619L23.0779 31.8424L23.0173 30.4777L23.7148 28.7794Z" fill="#3A3A3A"/>
<path d="M22.1683 29.9317L23.2601 30.6595V31.7815L20.2275 32.9339L19.1661 30.6898L18.9235 29.2342L19.621 28.7793L21.6831 28.658L22.1683 29.9317Z" fill="#678A6F"/>
<path d="M15.3451 28.2031L19.2268 25.595L16.2245 24.8065L10.5233 30.4775V34.1773L11.9486 39.0598V36.4821L15.3451 28.2031Z" fill="#3A3A3A"/>
<path d="M28.8096 24.8976C28.749 24.8976 25.1402 25.8074 25.1402 25.8074L21.5617 28.7794H19.6208L25.5344 24.8976H28.8096Z" fill="#3A3A3A"/>
<path d="M33.6316 22.3807L35.0873 24.7158L33.3587 25.6256L26.9296 22.9872L26.778 21.198L30.3564 21.4406L33.6316 22.3807Z" fill="#79A281"/>
<path d="M33.6013 24.2001L33.0251 24.6247L32.9644 24.5337L33.6013 24.0485L34.511 24.564L34.4504 24.6853L33.6013 24.2001Z" fill="#3A3A3A"/>
<path d="M19.4692 18.5898L26.3532 20.3184V24.2911L23.7149 23.2903L18.5594 20.652L19.4692 18.5898Z" fill="#8FC19A"/>
<path d="M28.0514 19.2874L24.9581 16.2244L25.0491 13.3738L28.0514 19.2874Z" fill="#7AA383"/>
<path d="M26.9296 20.4397L25.0797 12.4943L10.4929 0L12.646 5.9439L21.1373 14.1319L26.9296 20.4397Z" fill="#CCE2D2"/>
<path d="M10.2807 6.0954L15.5877 12.1606L21.1374 14.1318L9.79547 3.15378L10.2807 6.0954Z" fill="#ACD2B4"/>
<path d="M2.91138 12.6763L8.82495 14.2836L13.6165 19.0145L8.52169 17.4982L7.18734 16.5884L2.91138 12.6763Z" fill="#393839"/>
<path d="M18.5289 21.8651L18.4076 22.8658L12.7367 22.3503L8.24841 19.9242L18.5289 21.8651Z" fill="#ACD2B4"/>
<path d="M16.8914 23.9576L14.6169 23.7453L11.1295 22.6232L18.62 22.8962L25.9285 23.5027L26.7777 25.0796L24.9581 24.7461L20.9854 24.3821L18.1044 23.2904L16.8914 23.9576Z" fill="#678A6F"/>
<path d="M5.48907 16.5277L17.9227 20.3185L23.715 23.2904L18.408 22.8658L11.6453 20.834L5.48907 16.5277Z" fill="#CCE1D1"/>
<path d="M4.24562 12.3123L9.24941 16.1637L13.6164 19.0143L18.5595 20.6519L19.4693 18.5897L0.788452 7.39944L4.24562 12.3123Z" fill="#78A381"/>
<path d="M0 3.15378L5.42836 10.5837L19.4693 18.5897L26.9295 20.4396L21.1372 14.1318L0 3.15378Z" fill="#393839"/>
<path d="M26.3534 24.2607V20.3184L26.9296 20.4397V20.561L30.3564 21.4404L27.3845 21.865L29.7499 22.8657L27.3845 22.9264L31.1146 24.4124L33.3587 25.6254L33.48 26.141L29.9319 24.8976H26.778L26.3534 24.2607Z" fill="#CCE1D1"/>
<path d="M35.0872 26.7475L34.1774 27.536H33.2373L33.6619 26.8082L33.3586 25.6255L35.0872 24.7157V26.7475Z" fill="#3A3A3A"/>
<path d="M14.9812 34.0864L15.6483 34.9355L15.4967 35.1478L15.9819 40L12.8887 34.1167L15.527 27.8696L20.9857 24.3821L25.5346 24.8673V24.8976L18.0744 29.7801L17.4376 28.84L14.9812 34.0864Z" fill="#CDE3D2"/>
<path d="M20.9853 24.3821L10.5229 30.9326L8.24841 33.6316L9.03689 30.69L11.4023 27.4451L18.1044 23.2904L20.9853 24.3821Z" fill="#8FC19A"/>
<path d="M18.0745 29.7801V37.1493L19.0146 39.4844L14.9812 34.0864L17.4376 28.84L18.0745 29.7801Z" fill="#78A381"/>
<path d="M7.79395 29.0522V30.0833L9.73481 27.4753L7.79395 29.0522Z" fill="#3A3A3A"/>
<path d="M9.79518 35.7542L10.1288 37.7861L9.40094 37.3312V34.8141L9.79518 35.7542Z" fill="#678A6F"/>
</svg>

<svg width="105" height="40" viewBox="0 0 105 40" fill="none" xmlns="http://www.w3.org/2000/svg"><path d="M42.604 31.517c0 .92-.46 1.38-1.38 1.38h-1.406V22.373c.135-3.3 1.867-4.896 5.194-4.896 3.435 0 5.166 1.84 5.166 5.545 0 3.733-1.46 5.68-4.436 5.789-1.38 0-2.435-.568-3.138-1.704v4.409zm2.38-5.194c1.515 0 2.273-1.054 2.354-3.191 0-2.218-.785-3.327-2.38-3.327-1.596 0-2.354 1.109-2.327 3.327.081 2.137.839 3.191 2.353 3.191zM55.615 19.913c-1.65 0-2.38 1.38-2.38 3.056v5.627h-2.76V14.449h1.407c.92 0 1.38.487 1.38 1.406v3.3c1.434-1.623 3.165-2.082 5.247-1.352 1.542.568 2.273 2.029 2.191 4.436v6.384h-2.759v-5.654c0-1.866-.73-3.056-2.326-3.056zM63.973 20.454h-2.786c.324-2.029 1.785-3.03 4.328-3.03 3.056 0 4.625 1.001 4.68 3.03v3.733c0 3.03-1.84 4.381-4.843 4.598-2.65.216-4.517-1.028-4.517-3.462.054-2.651 2.002-3.355 4.815-3.625 1.19-.135 1.812-.487 1.812-1.109-.054-.622-.649-.947-1.812-.947-.974.054-1.515.298-1.677.812zm3.516 3.624v-1.027c-.649.27-1.406.486-2.218.676-1.109.216-1.677.73-1.677 1.541.054.866.514 1.299 1.407 1.299 1.542 0 2.488-.92 2.488-2.489zM73.738 15.801v12.795h-2.786V14.449h1.433c.73 0 1.353.622 1.353 1.352zM79.364 28.839c-3.354 0-5.085-1.92-5.166-5.707 0-3.76 1.704-5.654 5.112-5.708 2.678 0 4.274 1.19 4.76 3.57h-3.029c-.325-.757-.92-1.135-1.812-1.135-1.461 0-2.191 1.109-2.191 3.3 0 2.19.784 3.3 2.326 3.273.65 0 1.217-.27 1.677-.785.27-.27.595-.405.947-.405h2.11c-.514 2.217-2.164 3.678-4.734 3.597zM94.511 23.159c0 3.787-1.704 5.707-5.058 5.707s-5.031-1.92-5.031-5.707c0-3.841 1.677-5.708 5.031-5.708 3.381-.027 5.058 1.867 5.058 5.708zm-7.249 0c.027 2.137.758 3.219 2.191 3.219 1.434 0 2.137-1.136 2.164-3.3 0-2.137-.703-3.192-2.137-3.192-1.487-.027-2.218 1.082-2.218 3.273zM102.87 28.596c-.92-.055-1.38-.487-1.38-1.38v-5.653c-.054-1.136-.703-1.704-1.92-1.704-1.245 0-1.867.568-1.894 1.704v7.033h-2.84V22.13c0-3.138 1.596-4.707 4.76-4.707 3.165 0 4.707 1.57 4.707 4.707v6.465h-1.433z" fill="#fff"/><path d="M14.98 23.593l-1.849.88 3.821-.303.728-.577-.212-.363-2.487.363z" fill="#ACD2B4"/><path d="M21.44 33.904l1.82.85v.545l-1.244-.515-.151.273 1.152.576.486 1.183-1.153-.97h-.242l.242 2.971-1.456-1.698-.12-1.729.666-1.486z" fill="#3A3A3A"/><path d="M19.015 33.662l2.092 2.032v1.395l-1.88.788-1.152-2.062V29.78l.485-.94.182.152.273 4.67z" fill="#8FC19A"/><path d="M23.715 28.78l1.82.849v.576l-1.214-.546-.151.273 1.091.546.516 1.243-1.092-1h-.242l.212 2.94-1.577-1.819-.06-1.364.697-1.699z" fill="#3A3A3A"/><path d="M22.168 29.932l1.092.728v1.122l-3.033 1.152-1.06-2.244-.244-1.456.698-.455 2.062-.121.485 1.274z" fill="#678A6F"/><path d="M15.345 28.203l3.882-2.608-3.003-.788-5.7 5.67v3.7l1.425 4.883v-2.578l3.396-8.279zM28.81 24.898c-.061 0-3.67.91-3.67.91l-3.578 2.971H19.62l5.913-3.881h3.276z" fill="#3A3A3A"/><path d="M33.632 22.38l1.455 2.336-1.728.91-6.43-2.639-.151-1.789 3.578.243 3.276.94z" fill="#79A281"/><path d="M33.601 24.2l-.576.425-.06-.091.636-.485.91.515-.06.121-.85-.485z" fill="#3A3A3A"/><path d="M19.47 18.59l6.883 1.728v3.973l-2.638-1-5.156-2.639.91-2.062z" fill="#8FC19A"/><path d="M28.051 19.287l-3.093-3.063.091-2.85 3.002 5.913z" fill="#7AA383"/><path d="M26.93 20.44l-1.85-7.946L10.493 0l2.153 5.944 8.491 8.188 5.793 6.308z" fill="#CCE2D2"/><path d="M10.28 6.095l5.308 6.066 5.55 1.97L9.794 3.155l.486 2.941z" fill="#ACD2B4"/><path d="M2.911 12.676l5.914 1.608 4.792 4.73-5.095-1.516-1.335-.91-4.276-3.912z" fill="#393839"/><path d="M18.529 21.865l-.121 1-5.671-.515-4.489-2.426 10.28 1.941z" fill="#ACD2B4"/><path d="M16.891 23.958l-2.274-.213-3.488-1.122 7.491.273 7.308.607.85 1.577-1.82-.334-3.973-.364-2.88-1.092-1.214.668z" fill="#678A6F"/><path d="M5.49 16.528l12.433 3.79 5.792 2.972-5.307-.424-6.763-2.032-6.156-4.306z" fill="#CCE1D1"/><path d="M4.246 12.312l5.003 3.852 4.367 2.85 4.944 1.638.91-2.062L.787 7.4l3.458 4.912z" fill="#78A381"/><path d="M0 3.154l5.428 7.43L19.47 18.59l7.46 1.85-5.792-6.308L0 3.154z" fill="#393839"/><path d="M26.353 24.26v-3.942l.577.122v.121l3.426.88-2.972.424 2.366 1-2.366.061 3.73 1.486 2.245 1.213.121.516-3.548-1.243h-3.154l-.425-.637z" fill="#CCE1D1"/><path d="M35.087 26.747l-.91.789h-.94l.425-.728-.303-1.183 1.728-.91v2.032z" fill="#3A3A3A"/><path d="M14.981 34.086l.667.85-.151.212.485 4.852-3.093-5.883 2.638-6.247 5.459-3.488 4.549.485v.03l-7.46 4.883-.637-.94-2.457 5.246z" fill="#CDE3D2"/><path d="M20.985 24.382l-10.462 6.55-2.275 2.7.789-2.942 2.365-3.245 6.702-4.155 2.881 1.092z" fill="#8FC19A"/><path d="M18.075 29.78v7.37l.94 2.334-4.034-5.398 2.457-5.246.637.94z" fill="#78A381"/><path d="M7.794 29.052v1.031l1.94-2.608-1.94 1.577z" fill="#3A3A3A"/><path d="M9.795 35.754l.334 2.032-.728-.455v-2.517l.394.94z" fill="#678A6F"/></svg>
